X:49
T:Bob Johnston
S:Alistair C
R:Strathspey
O:Scotland
M:C
K:G
D//|\
G<G G>A B>A G<D|B,>D G,>G F>G A<B|\
G<G G>A B>c d>e|d<B (3BAG A2 A<B|
G<G G>A B>A G<D|B,>D G,>G F>G A>B|\
(3cde (3gfe (3dcB (3cde|D<D F>A (G2 G3/2)||
d//|\
B<d g>a g>f e>d|(3efg dG A<c|\
B<d g>a g>f e>d|c>B A>d B<G G>d|
B<d g>a g>f e>d|(3efg dG A<B|\
G>A G<E c>d e>g|(3ded (3ABc B<G G3/2|]
